Catalina-light/actions/16/tools-check-spelling-symbolic.svg

<?xml version="1.0" encoding="UTF-8" standalone="no"?>
<svg
   xmlns:dc="http://purl.org/dc/elements/1.1/"
   xmlns:cc="http://creativecommons.org/ns#"
   xmlns:rdf="http://www.w3.org/1999/02/22-rdf-syntax-ns#"
   xmlns:svg="http://www.w3.org/2000/svg"
   xmlns="http://www.w3.org/2000/svg"
   xmlns:sodipodi="http://sodipodi.sourceforge.net/DTD/sodipodi-0.dtd"
   xmlns:inkscape="http://www.inkscape.org/namespaces/inkscape"
   viewBox="0 0 16 16"
   id="svg3247"
   version="1.1"
   inkscape:version="0.91 r13725"
   sodipodi:docname="tools-check-spelling-symbolic.svg">
  <metadata
     id="metadata3255">
    <rdf:RDF>
      <cc:Work
         rdf:about="">
        <dc:format>image/svg+xml</dc:format>
        <dc:type
           rdf:resource="http://purl.org/dc/dcmitype/StillImage" />
      </cc:Work>
    </rdf:RDF>
  </metadata>
  <sodipodi:namedview
     pagecolor="#ffffff"
     bordercolor="#666666"
     borderopacity="1"
     objecttolerance="10"
     gridtolerance="10"
     guidetolerance="10"
     inkscape:pageopacity="0"
     inkscape:pageshadow="2"
     inkscape:window-width="640"
     inkscape:window-height="480"
     id="namedview3253"
     showgrid="false"
     inkscape:zoom="41.1875"
     inkscape:cx="3.6783005"
     inkscape:cy="8"
     inkscape:current-layer="svg3247" />
  <defs
     id="defs3051">
    <style
       type="text/css"
       id="current-color-scheme">
      .ColorScheme-Text {
        color:#bebebe;
      }
      </style>
  </defs>
  <path
     style="color:#bebebe;fill:currentColor;fill-opacity:1;stroke:none"
     class="ColorScheme-Text"
     d="m 7.9999995,4.3999991 0,6.0619169 0,0.754792 0.7912561,0 1.5825124,0 c 0.742633,0 1.410406,-0.288559 1.82978,-0.731205 C 12.622922,10.042858 12.804807,9.4796082 12.79699,8.9287465 12.78907,8.3778848 12.570959,7.831225 12.154094,7.3955768 11.737229,6.9599286 11.102554,6.6643728 10.373768,6.6643728 l -0.7912563,0 0,-2.2643737 -1.5825122,0 z m -4.7475365,0.7547912 0,1.5095825 2.299588,0 c -0.043678,0 0.074141,0.1290972 0.074141,0.070762 l 0,0.7076168 -0.7912561,0 c -1.3577005,0 -2.4037331,0.8377125 -2.4232218,1.8633908 -0.00973,0.5128386 0.2528064,1.0214066 0.6923491,1.3680586 0.4395427,0.346652 1.0362211,0.542507 1.7308727,0.542507 l 1.5825121,0 0.7912561,0 0,-0.754792 0,-3.7267812 c 0,-0.8761556 -0.6977217,-1.5682742 -1.6319657,-1.5803442 l -0.024687,0 -2.299588,0 z m 6.3300487,3.0191649 0.7912563,0 c 0.333744,0 0.490301,0.1022403 0.618168,0.2358723 0.127868,0.133632 0.219582,0.3343272 0.222541,0.5425062 0.0032,0.208179 -0.07786,0.3922839 -0.197813,0.5189189 -0.119979,0.1266352 -0.2799,0.2358724 -0.642896,0.2358724 l -0.7912563,0 0,-1.5331698 z m -4.7475365,0.7783785 0.7912561,0 0,0.7547913 -0.7912561,0 C 4.4239889,9.707125 4.2177084,9.5971413 4.1178994,9.5184271 4.0180903,9.4397129 3.993237,9.3840464 3.9942656,9.3297293 3.9966416,9.221096 4.0676152,8.9523337 4.8349752,8.9523337 Z M 4.0437191,11.405405 3.7717248,11.688452 2.1892126,13.198034 a 0.3956676,0.37743335 0 1 0 0.5439886,0.51892 L 4.0437191,12.46683 5.354237,13.716954 5.6262313,14 5.8982256,13.716954 7.2087434,12.46683 8.5192613,13.716954 8.7912556,14 9.0632498,13.716954 10.373768,12.46683 11.684286,13.716954 11.95628,14 12.228274,13.716954 13.810787,12.207371 A 0.3956676,0.37743335 0 1 0 13.266798,11.688452 L 11.95628,12.938575 10.645762,11.688452 10.373768,11.405405 10.101773,11.688452 8.7912556,12.938575 7.4807377,11.688452 7.2087434,11.405405 6.9367492,11.688452 5.6262313,12.938575 4.3157134,11.688452 4.0437191,11.405405 Z"
     id="path3251"
     inkscape:connector-curvature="0" />
</svg>

<svg version="1.1" viewBox="0 0 16 16" xmlns="http://www.w3.org/2000/svg">
<defs>
<style id="current-color-scheme" type="text/css">.ColorScheme-Text {
        color:#bebebe;
      }</style>
</defs>
<path class="ColorScheme-Text" d="m8 4.4v6.0619 0.75479h0.79126 1.5825c0.74263 0 1.4104-0.28856 1.8298-0.7312 0.41937-0.44264 0.60126-1.0059 0.59344-1.5568-0.00792-0.55086-0.22603-1.0975-0.6429-1.5332s-1.0515-0.7312-1.7803-0.7312h-0.79126v-2.2644h-1.5825zm-4.7475 0.75479v1.5096h2.2996c-0.043678 0 0.074141 0.1291 0.074141 0.070762v0.70762h-0.79126c-1.3577 0-2.4037 0.83771-2.4232 1.8634-0.00973 0.51284 0.25281 1.0214 0.69235 1.3681s1.0362 0.54251 1.7309 0.54251h1.5825 0.79126v-0.75479-3.7268c0-0.87616-0.69772-1.5683-1.632-1.5803h-0.024687-2.2996zm6.33 3.0192h0.79126c0.33374 0 0.4903 0.10224 0.61817 0.23587 0.12787 0.13363 0.21958 0.33433 0.22254 0.54251 0.0032 0.20818-0.07786 0.39228-0.19781 0.51892-0.11998 0.12664-0.2799 0.23587-0.6429 0.23587h-0.79126v-1.5332zm-4.7475 0.77838h0.79126v0.75479h-0.79126c-0.41099 0-0.61727-0.10998-0.71708-0.1887-0.099809-0.078714-0.12466-0.13438-0.12363-0.1887 0.002376-0.10863 0.07335-0.3774 0.84071-0.3774zm-0.79126 2.4531-0.27199 0.28305-1.5825 1.5096a0.39567 0.37743 0 1 0 0.54399 0.51892l1.3105-1.2501 1.3105 1.2501 0.27199 0.28305 0.27199-0.28305 1.3105-1.2501 1.3105 1.2501 0.27199 0.28305 0.27199-0.28305 1.3105-1.2501 1.3105 1.2501 0.27199 0.28305 0.27199-0.28305 1.5825-1.5096a0.39567 0.37743 0 1 0-0.54399-0.51892l-1.3105 1.2501-1.3105-1.2501-0.27199-0.28305-0.272 0.28305-1.3105 1.2501-1.3105-1.2501-0.27199-0.28305-0.27199 0.28305-1.3105 1.2501-1.3105-1.2501-0.27199-0.28305z" color="#bebebe" fill="currentColor"/>
</svg>
